X: 219
T:Bourre d'Arleuf
M:3/8
L:1/4
Q:100
C:trad
R:Bourre
O:France
A:Morvan
Z:S Piron
K:C
GAB|c>Bc|ede|c>Bc|ABc|d>ed|1cBA|A2G:|2GAB|c3|
|:ege|dfe|dcd|e2c|ege|dfe|1dcd|d2c:|2dcB|c3||
W:
W: From "Falaleiro" http://home.t-online.de/home/pheld/homepage.htm
